<?xml version="1.0" encoding="UTF-8"?>
<map version="1.10" tiledversion="1.12.2" orientation="orthogonal" renderorder="right-down" width="30" height="30" tilewidth="16" tileheight="16" infinite="0" nextlayerid="14" nextobjectid="154">
 <tileset firstgid="1" source="../spritesheet/roguelikeCity_transparent.tsx"/>
 <tileset firstgid="1037" name="plant_repack_16x16" tilewidth="16" tileheight="16" tilecount="169" columns="13">
  <image source="../spritesheet/plant_repack_16x16.png" width="208" height="208"/>
 </tileset>
 <layer id="2" name="background" width="30" height="30">
  <data encoding="csv">
715,787,788,715,17,18,715,715,715,715,715,715,715,715,715,715,715,715,715,715,17,18,926,927,927,927,927,927,927,928,
715,787,788,715,20,57,715,715,715,715,715,715,715,715,715,715,715,715,715,715,20,57,963,964,964,964,964,964,964,965,
715,787,788,715,20,57,715,715,715,715,715,715,715,715,715,715,715,715,715,715,20,57,963,964,964,964,964,964,964,965,
715,787,788,715,20,57,715,715,715,715,715,715,715,715,715,715,715,715,715,715,20,57,963,964,964,964,964,964,964,965,
715,787,788,715,20,57,715,715,715,715,715,715,715,715,715,715,715,715,715,715,20,57,963,964,964,964,964,964,964,965,
715,787,788,715,20,57,715,715,715,715,715,715,715,715,715,715,715,715,715,715,20,57,963,964,964,964,964,964,964,965,
715,787,788,715,20,57,715,715,715,715,715,715,715,715,715,715,715,715,715,715,20,57,963,964,964,964,964,964,964,965,
715,787,788,715,20,57,715,715,715,715,715,715,715,715,715,715,715,715,715,715,20,57,963,964,964,964,964,964,964,965,
715,787,788,715,20,57,715,715,715,715,715,715,715,715,715,715,715,715,715,715,20,57,963,964,964,964,964,964,964,965,
715,787,788,715,20,57,715,715,715,715,715,715,715,715,715,715,715,715,715,715,20,57,963,964,964,964,964,964,964,965,
715,787,788,715,54,55,715,715,715,715,715,715,715,715,715,715,715,715,715,715,20,57,963,964,964,964,964,964,964,965,
715,787,788,715,824,824,715,715,715,715,715,715,715,715,715,715,715,715,715,715,20,57,963,964,964,964,964,964,964,965,
715,787,788,715,824,824,715,715,715,715,715,715,715,715,715,715,715,715,715,715,20,57,963,964,964,964,964,964,964,965,
715,787,788,715,824,824,715,715,715,715,715,715,715,715,715,715,715,715,715,715,20,57,963,964,964,964,964,964,964,965,
715,787,788,715,824,824,715,715,715,715,715,715,715,715,715,715,715,715,715,715,20,57,963,964,964,964,964,964,964,965,
715,787,788,715,17,18,715,715,715,715,715,715,715,715,715,715,715,715,715,715,20,57,963,964,964,964,964,964,964,965,
715,787,788,715,20,57,715,715,715,715,715,715,715,715,715,715,715,715,715,715,20,57,963,964,964,964,964,964,964,965,
715,787,788,715,20,57,715,715,715,715,715,715,715,715,715,715,715,715,715,715,20,57,963,964,964,964,964,964,964,965,
715,787,788,715,20,57,715,715,715,715,715,715,715,715,715,715,715,715,715,715,20,57,963,964,964,964,964,964,964,965,
715,787,788,715,20,57,715,715,715,715,715,715,715,715,715,715,715,715,715,715,20,57,963,964,964,964,964,964,964,965,
715,787,788,715,20,57,715,715,715,715,715,715,715,715,715,715,715,715,715,715,20,57,963,964,964,964,964,964,964,965,
715,787,788,715,20,57,715,715,715,715,715,715,715,715,715,715,715,715,715,715,20,57,963,964,964,964,964,964,964,965,
715,787,788,715,20,57,715,715,715,715,715,715,715,715,715,715,715,715,715,715,20,57,963,964,964,964,964,964,964,965,
715,787,788,715,20,57,715,715,715,715,715,715,715,715,715,715,715,715,715,715,20,57,963,964,964,964,964,964,964,965,
715,787,788,715,20,57,715,715,715,715,715,715,715,715,715,715,715,715,715,715,20,57,963,964,964,964,964,964,964,965,
715,787,788,715,20,57,715,715,715,715,715,715,715,715,715,715,715,715,715,715,20,57,963,964,964,964,964,964,964,965,
715,787,788,715,20,57,715,715,715,715,715,715,715,715,715,715,715,715,715,715,20,57,963,964,964,964,964,964,964,965,
715,787,788,715,20,57,715,715,715,715,715,715,715,715,715,715,715,715,715,715,20,57,963,964,964,964,964,964,964,965,
715,787,788,715,20,57,715,715,715,715,715,715,715,715,715,715,715,715,715,715,20,57,963,964,964,964,964,964,964,965,
715,787,788,715,54,55,715,715,715,715,715,715,715,715,715,715,715,715,715,715,54,55,1000,1001,1001,1001,1001,1001,1001,1002
</data>
 </layer>
 <layer id="12" name="environment" width="30" height="30">
  <data encoding="csv">
0,0,0,0,0,0,0,0,0,0,0,0,0,0,0,0,0,0,0,0,0,0,0,0,1158,1159,1160,0,0,0,
0,0,0,0,0,0,0,0,0,0,0,0,0,0,0,0,0,0,0,0,0,0,0,0,1171,1172,1173,0,0,0,
0,0,0,0,0,0,0,0,0,0,0,0,0,0,0,0,0,0,0,0,0,0,0,0,1184,1185,1186,0,0,0,
0,0,0,0,0,0,0,0,0,0,0,0,0,0,0,0,0,0,0,0,0,0,0,0,1197,1198,1199,0,0,0,
0,0,0,0,0,0,0,0,0,0,0,0,0,0,0,0,0,0,0,0,0,0,0,0,0,0,0,0,0,0,
0,0,0,0,0,0,0,0,0,0,0,0,0,0,0,0,0,0,0,0,0,0,0,0,1158,1159,1160,0,0,0,
0,0,0,0,0,0,0,0,0,0,0,0,0,0,0,0,0,0,0,0,0,0,0,0,1171,1172,1173,0,0,0,
0,0,0,0,0,0,0,0,0,0,0,0,0,0,0,0,0,0,0,0,0,0,0,0,1184,1185,1186,0,0,0,
0,0,0,0,0,0,0,0,0,0,0,0,0,0,0,0,0,0,0,0,0,0,0,0,1197,1198,1199,0,0,0,
0,0,0,0,0,0,0,0,0,0,0,0,0,0,0,0,0,0,0,0,0,0,0,0,0,0,0,0,0,0,
0,0,0,0,0,0,0,0,0,0,0,0,0,0,0,0,0,0,0,0,0,0,0,0,1158,1159,1160,0,0,0,
0,0,0,0,0,0,0,0,0,0,0,0,0,0,0,0,0,0,0,0,0,0,0,0,1171,1172,1173,0,0,0,
0,0,0,0,0,0,0,0,0,0,0,0,0,0,0,0,0,0,0,0,0,0,0,0,1184,1185,1186,0,0,0,
0,0,0,0,0,0,0,0,0,0,0,0,0,0,0,0,0,0,0,0,0,0,0,0,1197,1198,1199,0,0,0,
0,0,0,0,0,0,0,0,0,0,0,0,0,0,0,0,0,0,0,0,0,0,0,0,0,0,0,0,0,0,
0,0,0,0,0,0,0,0,0,0,0,0,0,0,0,0,0,0,0,0,0,0,0,0,1158,1159,1160,0,0,0,
0,0,0,0,0,0,0,0,0,0,0,0,0,0,0,0,0,0,0,0,0,0,0,0,1171,1172,1173,0,0,0,
0,0,0,0,0,0,0,0,0,0,0,0,0,0,0,0,0,0,0,0,0,0,0,0,1184,1185,1186,0,0,0,
0,0,0,0,0,0,0,0,0,0,0,0,0,0,0,0,0,0,0,0,0,0,0,0,1197,1198,1199,0,0,0,
0,0,0,0,0,0,0,0,0,0,0,0,0,0,0,0,0,0,0,0,0,0,0,0,0,0,0,0,0,0,
0,0,0,0,0,0,0,0,0,0,0,0,0,0,0,0,0,0,0,0,0,0,0,0,1158,1159,1160,0,0,0,
0,0,0,0,0,0,0,0,0,0,0,0,0,0,0,0,0,0,0,0,0,0,0,0,1171,1172,1173,0,0,0,
0,0,0,0,0,0,0,0,0,0,0,0,0,0,0,0,0,0,0,0,0,0,0,0,1184,1185,1186,0,0,0,
0,0,0,0,0,0,0,0,0,0,0,0,0,0,0,0,0,0,0,0,0,0,0,0,1197,1198,1199,0,0,0,
0,0,0,0,0,0,0,0,0,0,0,0,0,0,0,0,0,0,0,0,0,0,0,0,0,0,0,0,0,0,
0,0,0,0,0,0,0,0,0,0,0,0,0,0,0,0,0,0,0,0,0,0,0,0,1158,1159,1160,0,0,0,
0,0,0,0,0,0,0,0,0,0,0,0,0,0,0,0,0,0,0,0,0,0,0,0,1171,1172,1173,0,0,0,
0,0,0,0,0,0,0,0,0,0,0,0,0,0,0,0,0,0,0,0,0,0,0,0,1184,1185,1186,0,0,0,
0,0,0,0,0,0,0,0,0,0,0,0,0,0,0,0,0,0,0,0,0,0,0,0,1197,1198,1199,0,0,0,
0,0,0,0,0,0,0,0,0,0,0,0,0,0,0,0,0,0,0,0,0,0,0,0,0,0,0,0,0,0
</data>
 </layer>
 <layer id="8" name="parking" width="30" height="30" locked="1">
  <data encoding="csv">
0,0,0,0,0,0,0,0,0,0,0,0,0,0,0,0,0,0,0,0,0,0,0,0,0,0,0,0,0,0,
0,0,0,0,0,0,0,793,833,833,0,0,0,0,0,0,2147484481,2147484481,2147484441,0,0,0,0,0,0,0,0,0,0,0,
0,0,0,0,0,0,0,796,715,715,0,0,0,0,0,0,2147484363,2147484363,2147484444,0,0,0,0,0,0,0,0,0,0,0,
0,0,0,0,0,0,0,793,833,833,0,0,0,0,0,0,2147484481,2147484481,2147484441,0,0,0,0,0,0,0,0,0,0,0,
0,0,0,0,0,0,0,796,715,715,0,0,0,0,0,0,2147484363,2147484363,2147484444,0,0,0,0,0,0,0,0,0,0,0,
0,0,0,0,0,0,0,793,833,833,0,0,0,0,0,0,2147484481,2147484481,2147484441,0,0,0,0,0,0,0,0,0,0,0,
0,0,0,0,0,0,0,796,715,715,0,0,0,0,0,0,2147484363,2147484363,2147484444,0,0,0,0,0,0,0,0,0,0,0,
0,0,0,0,0,0,0,793,833,833,0,0,0,0,0,0,2147484481,2147484481,2147484441,0,0,0,0,0,0,0,0,0,0,0,
0,0,0,0,0,0,0,796,715,715,0,0,0,0,0,0,2147484363,2147484363,2147484444,0,0,0,0,0,0,0,0,0,0,0,
0,0,0,0,0,0,0,833,833,833,0,0,0,0,0,0,2147484481,2147484481,2147484481,0,0,0,0,0,0,0,0,0,0,0,
0,0,0,0,0,0,0,0,0,0,0,0,0,0,0,0,0,0,0,0,0,0,0,0,0,0,0,0,0,0,
0,0,0,0,0,0,0,0,0,0,0,0,0,0,0,0,0,0,0,0,0,0,0,0,0,0,0,0,0,0,
0,0,0,0,0,0,0,0,0,0,0,0,0,0,0,0,0,0,0,0,0,0,0,0,0,0,0,0,0,0,
0,0,0,0,0,0,0,0,0,0,0,0,0,0,0,0,0,0,0,0,0,0,0,0,0,0,0,0,0,0,
0,0,0,0,0,0,0,0,0,0,0,0,0,0,0,0,0,0,0,0,0,0,0,0,0,0,0,0,0,0,
0,0,0,0,0,0,0,0,0,0,0,0,0,0,0,0,0,0,0,0,0,0,0,0,0,0,0,0,0,0,
0,0,0,0,0,0,0,0,0,0,0,0,0,0,0,0,0,0,0,0,0,0,0,0,0,0,0,0,0,0,
0,0,0,0,0,0,0,793,833,833,0,0,0,0,0,0,2147484481,2147484481,2147484441,0,0,0,0,0,0,0,0,0,0,0,
0,0,0,0,0,0,0,796,715,715,0,0,0,0,0,0,2147484363,2147484363,2147484444,0,0,0,0,0,0,0,0,0,0,0,
0,0,0,0,0,0,0,793,833,833,0,0,0,0,0,0,2147484481,2147484481,2147484441,0,0,0,0,0,0,0,0,0,0,0,
0,0,0,0,0,0,0,796,715,715,0,0,0,0,0,0,2147484363,2147484363,2147484444,0,0,0,0,0,0,0,0,0,0,0,
0,0,0,0,0,0,0,793,833,833,0,0,0,0,0,0,2147484481,2147484481,2147484441,0,0,0,0,0,0,0,0,0,0,0,
0,0,0,0,0,0,0,796,715,715,0,0,0,0,0,0,2147484363,2147484363,2147484444,0,0,0,0,0,0,0,0,0,0,0,
0,0,0,0,0,0,0,793,833,833,0,0,0,0,0,0,2147484481,2147484481,2147484441,0,0,0,0,0,0,0,0,0,0,0,
0,0,0,0,0,0,0,796,715,715,0,0,0,0,0,0,2147484363,2147484363,2147484444,0,0,0,0,0,0,0,0,0,0,0,
0,0,0,0,0,0,0,793,833,833,0,0,0,0,0,0,2147484481,2147484481,2147484441,0,0,0,0,0,0,0,0,0,0,0,
0,0,0,0,0,0,0,796,715,715,0,0,0,0,0,0,2147484363,2147484363,2147484444,0,0,0,0,0,0,0,0,0,0,0,
0,0,0,0,0,0,0,793,833,833,0,0,0,0,0,0,2147484481,2147484481,2147484441,0,0,0,0,0,0,0,0,0,0,0,
0,0,0,0,0,0,0,796,715,715,0,0,0,0,0,0,2147484363,2147484363,2147484444,0,0,0,0,0,0,0,0,0,0,0,
0,0,0,0,0,0,0,833,833,833,0,0,0,0,0,0,2147484481,2147484481,2147484481,0,0,0,0,0,0,0,0,0,0,0
</data>
 </layer>
 <objectgroup id="13" name="cars">
  <object id="17" x="96" y="16" width="80" height="32">
   <properties>
    <property name="facing" value="right"/>
   </properties>
  </object>
  <object id="103" x="96" y="48" width="80" height="32">
   <properties>
    <property name="facing" value="right"/>
   </properties>
  </object>
  <object id="105" x="96" y="80" width="80" height="32">
   <properties>
    <property name="facing" value="right"/>
   </properties>
  </object>
  <object id="107" x="96" y="112" width="80" height="32">
   <properties>
    <property name="facing" value="right"/>
   </properties>
  </object>
  <object id="135" x="96" y="272" width="80" height="32">
   <properties>
    <property name="facing" value="right"/>
   </properties>
  </object>
  <object id="136" x="96" y="304" width="80" height="32">
   <properties>
    <property name="facing" value="right"/>
   </properties>
  </object>
  <object id="137" x="96" y="336" width="80" height="32">
   <properties>
    <property name="facing" value="right"/>
   </properties>
  </object>
  <object id="138" x="96" y="368" width="80" height="32">
   <properties>
    <property name="facing" value="right"/>
   </properties>
  </object>
  <object id="139" x="96" y="400" width="80" height="32">
   <properties>
    <property name="facing" value="right"/>
   </properties>
  </object>
  <object id="140" x="96" y="432" width="80" height="32">
   <properties>
    <property name="facing" value="right"/>
   </properties>
  </object>
  <object id="141" x="240" y="16" width="80" height="32">
   <properties>
    <property name="facing" value="left"/>
   </properties>
  </object>
  <object id="142" x="240" y="48" width="80" height="32">
   <properties>
    <property name="facing" value="left"/>
   </properties>
  </object>
  <object id="143" x="240" y="80" width="80" height="32">
   <properties>
    <property name="facing" value="left"/>
   </properties>
  </object>
  <object id="144" x="240" y="112" width="80" height="32">
   <properties>
    <property name="facing" value="left"/>
   </properties>
  </object>
  <object id="146" x="240" y="272" width="80" height="32">
   <properties>
    <property name="facing" value="left"/>
   </properties>
  </object>
  <object id="147" x="240" y="304" width="80" height="32">
   <properties>
    <property name="facing" value="left"/>
   </properties>
  </object>
  <object id="148" x="240" y="336" width="80" height="32">
   <properties>
    <property name="facing" value="left"/>
   </properties>
  </object>
  <object id="149" x="240" y="368" width="80" height="32">
   <properties>
    <property name="facing" value="left"/>
   </properties>
  </object>
  <object id="150" x="240" y="400" width="80" height="32">
   <properties>
    <property name="facing" value="left"/>
   </properties>
  </object>
  <object id="151" x="240" y="432" width="80" height="32">
   <properties>
    <property name="facing" value="left"/>
   </properties>
  </object>
 </objectgroup>
</map>
